img/filter-button.svg

<svg width="19" height="21" viewBox="0 0 19 21" fill="none" xmlns="http://www.w3.org/2000/svg">
<path opacity="0.3" d="M9.5 19.0909C4.25315 19.0909 0 14.8165 0 9.54546V11.4545C0 16.7255 4.25315 21 9.5 21C14.7459 21 19 16.7255 19 11.4545V9.54546C19 14.8165 14.7459 19.0909 9.5 19.0909Z" fill="#ABABAB"/>
<path d="M9.5 19.0909C14.7467 19.0909 19 14.8173 19 9.54545C19 4.27365 14.7467 0 9.5 0C4.25329 0 0 4.27365 0 9.54545C0 14.8173 4.25329 19.0909 9.5 19.0909Z" fill="white"/>
<path d="M9.50001 11.4545C10.5493 11.4545 11.4 10.5998 11.4 9.54545C11.4 8.49109 10.5493 7.63636 9.50001 7.63636C8.45067 7.63636 7.60001 8.49109 7.60001 9.54545C7.60001 10.5998 8.45067 11.4545 9.50001 11.4545Z" fill="#ABABAB"/>
</svg>

<svg width="19" height="21" fill="none" xmlns="http://www.w3.org/2000/svg"><path opacity=".3" d="M9.5 19.09c-5.247 0-9.5-4.274-9.5-9.545v1.91C0 16.724 4.253 21 9.5 21c5.246 0 9.5-4.274 9.5-9.546V9.545c0 5.271-4.254 9.546-9.5 9.546Z" fill="#ABABAB"/><path d="M9.5 19.09c5.247 0 9.5-4.273 9.5-9.545C19 4.274 14.747 0 9.5 0S0 4.274 0 9.545c0 5.272 4.253 9.546 9.5 9.546Z" fill="#fff"/><path d="M9.5 11.454c1.05 0 1.9-.854 1.9-1.909 0-1.054-.85-1.909-1.9-1.909-1.05 0-1.9.855-1.9 1.91 0 1.054.85 1.909 1.9 1.909Z" fill="#ABABAB"/></svg>
